X:10990
T:Miss Thompson's
R:Reel
A:Scotland
M:C|
L:1/8
K:D
(3ABc | d2 df edcB |A2 AB AGFE | DFAF DGBG | DFAF GFED |
d2 df edcB |A2 AB AGFE |DFAd fedc | d4 d2 :|
cd | ecec Acec | fdfd Adfd | g2ge f2fd | edcB A2 A2 |
BGBG DGBG | AFAF DFAF |DFAd fedc | d4 d2 :|
